X: 32
T: Merrily Kissed The Quaker
B: begged borrowed and stolen
B: ralph
B: nick
B: steve tunes
M:6/8
L:1/8
R: jig
Q: 3/8=100
K:Gmajor
V:1 
D|:"G"GABD2B |"C"c2A BGE|"G"GAB DEG|"D" A2A AGE|
 "G"GAB D2A |"C"cBA BGE|"G"GAB "D"D2E |"G"G3 G2:|
 A|:"G"BGG "C"AGG |"G"BGG "C"AGG|"G"GAB DEG |"D"A2A AGA|
 B"G"GG "C"AGG |"G"BGG "C"AGG|"G"GAB "A"DEG|"G" G3 G2:|
 d|:"G"g2g "C"a2a |"G"bag "C"edB|"G"g2g gab |"D"a2a agf|
 "G"g2g "D"f2f |"C"ege dBA|"G"GAB "D"AGF| "G"G3 G2:|
% abcbook-tune_id 62828a3ae32d0ba98e83eec1


% abcbook-boost 0
% abcbook-tablature 
% abcbook-transpose 
% abcbook-lastupdated 1665491494462
% abcbook-soundfonts 
% abcbook-repeats 3
% abc-sessionorg_id 70
% abc-sessionorg_setting 0
% abc-sessionorg_setting_id 70
% abc-boost 0

